X: 4
T: The Blacksmith's
R: reel
M: 4/4
L: 1/8
K: Dmaj
dB B/B/B dBGB | dBBd ABce | dB B2 dBGB | c2 Bc AB c/B/A |dB B2 dBGB | B2 dB ABcA | dB B2 dBGB | c/c/c Bc AcBA ||G2 BG DGBG | G/G/G BG FGAF | GABG DGBG | c/c/c Bc AcBA |G2 BG DGBG | G/G/G BG FGAF | G2 BG DGBG | c2 Bc AB c/B/A |]dB B/B/B dBGB | dBBB ABcA | dB B/B/B dBGB | c2 Bc ABcA |dB B2 dBGB | dBBd ABcA | d3 ^c dBGB | c/c/c Bc AcBA ||G2 BG DGBG | G/G/G BG FGAF | GABG DGBG | c/c/c Bc AcBA |G2 BG DGBG | G/G/G BG FGAF | G2 GG GBBB | c/c/c Bc ABcA |]dB B2 dBgB | dBBg ABcA | d3 ^c dBGB | c2 Bc ABcA |dB B/B/B dBgB | aBgB fBeB | dB B/B/B dBGB | c/c/c Bc AcBA ||G3 B DG G/G/G | G/G/G BG FGAF | G2 GB DGGG | c/c/c Bc AcBA |G3 G DG G/G/G | G2 GG F3 A | G2 GG DGGG | c/c/c Bc ABcA | d8 |]AF F/F/F AFdF | AFFA EFGB | AF F2 AFDF | G2 FG EF G/F/E |AF F2 AFdF | F2 AF EFGE | AF F2 AFDF | G/G/G FG EGFE ||D2 FD A,DFD | D/D/D FD CDEC | DEFD A,DFD | G/G/G FG EGFE |D2 FD A,DFD | D/D/D FD CDEC | D2 FD A,DFD | G2 FG EF G/F/E |]AF F/F/F AFdF | AFFF EFGE | AF F/F/F AFDF | G2 FG EFGE |AF F2 AFdF | AFFA EFGE | A3 ^G AFDF | G/G/G FG EGFE ||D2 FD A,DFD | D/D/D FD CDEC | DEFD A,DFD | G/G/G FG EGFE |D2 FD A,DFD | D/D/D FD CDEC | D2 DD DFFF | G/G/G FG EFGE |]AF F2 AFdF | AFFd EFGE | A3 ^G AFDF | G2 FG EFGE |AF F/F/F AFdF | eFdF cFBF | AF F/F/F AFDF | G/G/G FG EGFE ||D3 F A,D D/D/D | D/D/D FD CDEC | D2 DF A,DDD | G/G/G FG EGFE |D3 D A,D D/D/D | D2 DD C3 E | D2 DD A,DDD | G/G/G FG EFGE | A8 |]


Tune 3636	Setting 29042

